X:1
T:All Hail to Thee, Immanuel!
T:Charles Hutchinson Gabriel (1856-1932)
T:All Hail to Thee, Immanuel!
T:Public Domain
T:Public Domain
T:Public Domain
C:Charles Hutchinson Gabriel (1856-1932)
Z:Public Domain
%%score ( 1 2 ) ( 3 4 )
L:1/8
M:4/4
K:Bb
V:1 treble 
V:2 treble 
V:3 bass 
V:4 bass 
V:1
 [DF]2 | [DB]3 [Ec] [Fd]2 [FB]2 | [GB]3 [EG] [DF]2 [DB]2 | E2 E2 A>G F>G | [DF]4 [B,D]2 [DF]2 | %5
 [DB]3 [Ec] [Fd]2 [FB]2 | [GB]3 [EG] [DF]2 G2 | F2 F2 (3ABA (3G^FG | F2 =E2 [Fc]2 [Fd]2 | %9
 [Fe]3 [Fd] [Fc]2 =Bc | [Fd]3 [Ec] [DB]2 [FA]2 | [EG]2 [FA]2 [GB]2 [Gc]2 | %12
 [^Fd]2 [Fd]2 [=Fe]2 [Fe]2 | [Fd]3 [Fc] [FB]2 [Fd]2 | [Ac][GB][FA][EG] [DF]2 B2 | B2- F2 F2 B2 | %16
 B2- F2 E2 [=EB]2 | F2 B4 [Bg]2 | [Bf]6 [FB]2 | [Fd]4 [Ec]4 | [DB]6 z2 || (3FGA B>A G>F d>A | %22
 G>F F>A G>F F3/2 z/ | (3FGA B>A G>F e>A | G>F F>A G>F F3/2 z/ | (3eGA (3AB=B [Ec]>[DB] [Ec]2 | %26
 (3dFG (3ABc [Fd]>[=E^c] [Fd]2 | [Fc]2 [Gc]2 [Fc]2 [=Ec]2 | c4 F2- F2 x | (3FGA B>A G>F d>A | %30
 G>F F>A G>F F3/2 z/ | (3FGA B>A G>F F>A | G>F F>A G>F F3/2 z/ | [Fd]2 [EA]2 [FB]>[Fc] [Fd]>[Fe] | %34
 [FBf]6 [GBg]2 | [FBf]3 [DFB] [FBd]2 [EFc]2 | [DFB]6 |] %37
V:2
 x2 | x8 | x8 | A4- E2 E2 | x8 | x8 | x6 F2 | A4 =E2 E2 | c4 x4 | x6 F2 | x8 | x8 | x8 | x8 | %14
 x6 B2 | x2 B4 x2 | x2 B4 x2 | f6 x2 | x8 | x8 | x8 || d6- F3/2 x/ | B,2 B,2 B,>B, B,3/2 x/ | %23
 e6- F3/2 x/ | x8 | F2 F2 x4 | F2 D2 =E x3 | x8 | F6 E3 | d6- F3/2 x/ | x8 | e6- e3/2 x/ | x8 | %33
 x8 | x8 | x8 | x6 |] %37
V:3
 [B,,B,]2 | [B,,F,]3 [B,,F,] [B,,B,]2 [D,B,]2 | [E,B,]3 [E,B,] [B,,B,]2 [B,,F,]2 | %3
 [C,F,]2 [F,,F,]2 [C,F,]2 [F,,A,]2 | [B,,B,]4 [B,,F,]2 [B,,B,]2 | %5
 [B,,F,]3 [B,,F,] [B,,B,]2 [D,B,]2 | [E,B,]3 [E,B,] [B,,B,]2 [B,,D]2 | %7
 [C,C]2 [C,C]2 [C,C]2 [B,C]2 | [A,C]2 [G,B,]2 [F,A,]2 [F,B,]2 | [F,C]3 [F,B,] [F,A,]2 ^G,A, | %10
 [B,,B,]3 [B,,B,] [B,,B,]2 [D,B,]2 | [E,B,]2 [E,B,]2 [E,B,]2 [E,G,]2 | %12
 [D,A,]2 [D,A,]2 [C,A,]2 [F,A,]2 | [B,,B,]3 [C,A,] [D,B,]2 [B,,B,]2 | [E,B,]2 [E,B,]2 [B,,B,]2 z2 | %15
 z2 [B,D]2 [_A,D]2 z2 | z2 [_A,D]2 [G,E]2 [_G,^C]2 | [F,D]6 [^E,^C]2 | [F,D]6 [F,D]2 | %19
 [F,B,]4 [F,A,]4 | [B,,B,]6 z2 || %21
 (3[B,,B,][B,,B,][B,,B,] [B,,F,]>[B,,F,] [B,,B,]>[B,,B,] [B,,B,]3/2 z/ | %22
 B,,2 B,,2 B,,>B,, D3/2 z/ | (3[F,A,][F,B,][F,C] [F,C]>[F,C] [F,A,]>[F,A,] [F,A,]3/2 z/ | %24
 F,2 F,2 F,>F, [F,E]3/2 z/ | [F,A,]2 (3:2:2[F,C]2 ^G, [F,A,]>G, [F,A,]2 | %26
 [B,,B,]2 (3:2:2[B,,F,]2 [B,,F,] [B,,B,]>[B,,B,] [B,,B,]2 | [A,C]2 B,2 [A,C]2 [G,B,]2 | %28
 F,2 E,2 [D,B,]2 [C,A,]2 x | %29
 (3[B,,B,][B,,B,][B,,B,] [B,,F,]>[B,,F,] [B,,B,]>[B,,B,] [B,,B,]3/2 z/ | %30
 B,,2 B,,2 B,,>B,, B,,3/2 z/ | (3[F,A,][F,B,][F,C] [F,C]>[F,C] [F,A,]>[F,A,] [F,A,]3/2 z/ | %32
 F,2 F,2 F,>F, F,3/2 z/ | [B,,B,]2 [C,F,]2 [D,B,]>[F,A,] B,>B, | [B,D]6 [E,E]2 | %35
 [F,D]3 [F,D] [F,B,]2 [F,A,]2 | [B,,F,B,]6 |] %37
V:4
 x2 | x8 | x8 | x8 | x8 | x8 | x8 | x8 | x8 | x6 F,2 | x8 | x8 | x8 | x8 | x8 | x8 | x8 | x8 | x8 | %19
 x8 | x8 || x8 | D6- B,,3/2 x/ | x8 | E6- x2 | x10/3 F, x/ F,/ x8/3 | x8 | x2 C2 x4 | A,4 x5 | x8 | %30
 D6- D3/2 x/ | x8 | E6- E3/2 x/ | x15/2 C/ | x8 | x8 | x6 |] %37

